X: 138
T: Shao shu
L: 1/8
M: 2/4
K: Eb
F F/ B/ G/ F/ C/ E/ [I:setbarnb 1]| 
F2F2 | 
e c/ B/ A B | 
F F/ B/ G/ F/ C/ E/ | 
F2F2 | 
e c/ B/ A B | 
e c/ B/ A B | 
F F/ B/ E C/ E/ | 
F2F2 | 
B D B/ D3/ | 
B, E D C/ B,/ | 
A, B, F, A, | 
B, E A,3/ B,/ | 
C B, F, B, | 
A, G,/ F,/E,2 |]

@@@ Tune index: 9012
